X:1
T:Holmby Hills, LMD
T:Holmby Hills, LMD
T:James Holmes Rosecrans, 1899
T:Public Domain Courtesy of the Cyber Hymnal™
C:James Holmes Rosecrans, 1899
Z:Public Domain
Z:Courtesy of the Cyber Hymnal™
%%score ( 1 2 ) ( 3 4 )
L:1/8
Q:1/4=103
M:4/4
K:F
V:1 treble 
V:2 treble 
V:3 bass 
V:4 bass 
V:1
 [Ac]2 | [Ac]3 [Ac] [FA][Ac]F[FA] | C6 C2 | [B,C]2 [B,G]2 [B,G]3 [B,C] | [A,C]2 [CA]2 [CA]2 [Bc]2 | %5
 [Ac]3 [Ac] [FA][Ac]F[FA] | C6 [B,C]2 | [B,C]2 [B,G]2 [B,G]3 [B,C] | %8
 [B,C]2 [B,G]2 !fermata![A,F]2 [Fc]2 | [Fd]3 [DB] [Fc][FA][GB][EG] | [FA]6 [FA]2 | %11
 [GB]3 [EG] [FA][CF][CE][CF] | [EG]6 [Bc]2 | [Ac]3 [FA] [GB][FA][EG][CF] | [B,D]6 [Fd]2 | %15
 [Fc]3 [FA] [Fc][EB][FA][CG] | [CF]6 |] %17
V:2
 x2 | x6 F x | C6 C2 | x8 | x8 | x6 F x | C6 x2 | x8 | x8 | x8 | x8 | x8 | x8 | x8 | x8 | x8 | %16
 x6 |] %17
V:3
 F,2 | F,3 F, F,F,[F,A,][F,C] | [F,A,]6 [F,A,]2 | [C,E,]2 [C,E,]2 [C,E,]3 [C,E,] | %4
 F,2 F,2 F,2 [E,G,]2 | F,3 F, F,F,[F,A,][F,C] | [F,A,]6 [C,E,]2 | [C,E,]2 [C,E,]2 [C,E,]3 [C,E,] | %8
 [C,E,]2 [C,E,]2 !fermata!F,2 [F,A,]2 | [B,,B,]3 [B,,F,] [F,A,][F,C][C,C][C,C] | [F,C]6 [F,C]2 | %11
 [C,C]3 [C,C] [C,C][C,A,][C,G,][C,A,] | [C,C]6 [C,C]2 | [F,C]3 [F,C] [E,C][F,C][C,C][A,,F,] | %14
 [B,,F,]6 [B,,B,]2 | [C,A,]3 [C,C] [C,A,][C,G,][C,C][C,B,] | [F,A,]6 |] %17
V:4
 F,2 | F,3 F, F,F, x2 | x8 | x8 | F,2 F,2 F,2 x2 | F,3 F, F,F, x2 | x8 | x8 | x4 F,2 x2 | x8 | x8 | %11
 x8 | x8 | x8 | x8 | x8 | x6 |] %17

